X: 25
T: Pollonesse #25
M: 3/4
L: 1/16
K: D
Q:120
defg f2a2 f2a2|f2a2 a2gf g4|A2(ce) A2(ce) A2(ce)|A2(ce) g2fe f4|A2ce g2fe f4|d2(de) f2(fg) a2f2|g2ge e4d4:|
fedc d2f2 d2f2|edcB c2e2 c2e2|d2de f2d2 c2B2|A2A^G A4A,4:|

